packages/icons/svg/Fill/pause-circle.svg

<svg width="24" height="24" viewBox="0 0 24 24" fill="none" xmlns="http://www.w3.org/2000/svg">
<g id="Icon/Fill/pause-circle">
<path id="Mask" fill-rule="evenodd" clip-rule="evenodd" d="M15.9995 15C15.9995 15.55 15.5495 16 14.9995 16C14.4495 16 13.9995 15.55 13.9995 15V9C13.9995 8.45 14.4495 8 14.9995 8C15.5495 8 15.9995 8.45 15.9995 9V15ZM9.99951 15C9.99951 15.55 9.54951 16 8.99951 16C8.44951 16 7.99951 15.55 7.99951 15V9C7.99951 8.45 8.44951 8 8.99951 8C9.54951 8 9.99951 8.45 9.99951 9V15ZM11.9995 2C6.48551 2 1.99951 6.486 1.99951 12C1.99951 17.514 6.48551 22 11.9995 22C17.5145 22 21.9995 17.514 21.9995 12C21.9995 6.486 17.5145 2 11.9995 2Z" fill="#000000"/>
</g>
</svg>

<svg fill="none" height="24" viewBox="0 0 24 24" width="24" xmlns="http://www.w3.org/2000/svg"><path clip-rule="evenodd" d="m15.9995 15c0 .55-.45 1-1 1s-1-.45-1-1v-6c0-.55.45-1 1-1s1 .45 1 1zm-6 0c0 .55-.45 1-1 1s-1-.45-1-1v-6c0-.55.45-1 1-1s1 .45 1 1zm2-13c-5.514 0-10 4.486-10 10s4.486 10 10 10c5.515 0 10-4.486 10-10s-4.485-10-10-10z" fill="#6b7280" fill-rule="evenodd"/></svg>
